X: 3
T: Blow, Blow,  thou winter wind
C: Arne
K: E
L: 1/4
M: 4/4
B | "E" A/G/F/E/ "A" c E | "B7" E D2 "E" E | "B7" F/G/ A/F/ B, A |
"E" A G2 F | "Am" E E E E | "F#" ^A A "B7" B "E" E | "B7" D2 "F#" C > B, | "B7" B,3 B |
"C#" B ^E "C#" E G | "C#" B3/2 c//=d// "C#" c B | "F#m" B/A/G/F/ "C#" A/G/F/^E/ | "F#m" F/G/ (A "F#m" A) G/F/ |
"A" A/G/F/E/ "B" B/A/G/F/ | "E" B2 "A" c "E" E | "B" D "E" E "A" A "E" G | "B" G (F "B" F) B |
"E" A/G/F/E/ "E" B =D | "A" C c "E" B/<G/ "A" A/<F/ | "E" E2 "B" F2 |
"E" G/e/d/c/ "B" B/A/G/F/ | "E" G/<E/ "A" c/<A/ "E" G/<B/ "B" D/<F/ | "E" E3 "E" z |]

%% transpose 4
